X:1
T:Once Again, O Blessèd Time
T:Once Again, O Blessèd Time
T:John Bacchus Dykes
T:William Bright, 1874
T:Public Domain Courtesy of the Cyber Hymnal™
T:Public Domain Courtesy of the Cyber Hymnal™
T:Public Domain Courtesy of the Cyber Hymnal™
C:John Bacchus Dykes
Z:Public Domain
Z:Courtesy of the Cyber Hymnal™
%%score ( 1 2 ) ( 3 4 )
L:1/8
Q:1/4=85
M:6/8
K:C
V:1 treble 
V:2 treble 
V:3 bass 
V:4 bass 
V:1
 [EG]2 [^D^F] [EG]2 [Ee] | e2 [Fd] (cB[^DA]) | (GA)[EB] c2 [DB] | B2 [CA] G3 | %4
w: 1.~Once a- gain, O|bless- èd time, * *|Thank- * ful hearts em-|brace thee; If|
w: 2.~Once a- gain the|ho- ly night * *|Breathes * its bless- ing|ten- der; Once|
w: 3.~Wel- come Thou to|souls a- thirst, * *|Fount * of end- less|plea- sure: Gates|
w: 4.~Yea, if o- thers|stand a- part, * *|We * will press the|near- er; Yea,|
w: 5.~So we yield Thee|all we can, * *|Wor- * ship, thanks, and|bless- ing; Thee|
w: 6.~Thou that once, ’mid|sta- ble cold, * *|Wast * in babe- clothes|ly- ing, Thou|
 [EG]2 [^D^F] [EG]2 [Ee] | e2 [Fd] [Ec][EB][EA] | GB[Dc] (ded) | (cE[C^F] [B,G])[DB]A | %8
w: we lost thy fes-|tal chime, What could ev-|er re- place thee? * *|What * * * could ev-|
w: a- gain the man-|ger light Sheds its g-|en- tle splen- dor, * *|Sheds * * * its g-|
w: of Hell may do|their worst, While we cla-|sp our Trea- sure, * *|While * * * we cla-|
w: O best fra- ter-|nal Heart, We will ho-|ld Thee dear- er, * *|We * * * will ho-|
w: true God, and Thee|true Man, O- n our|knees con- fess- ing; * *|While * * * Thy birth-|
w: whose al- tar veils|en- fold Pow- er and|life un- dy- ing, * *|Pow- * * * er and|
 (A2 G-G)E[C^F] | [CA]3 A2 [DF] | [CE]2 [CD] [CE]2 [CF] | G2 [EG] F3 | [D^F]2 [DE] [DF]2 [DG] | %13
w: er * * re- thee?|Change will dark-|* en many a|day, Many a|bond dis- sev- er;|
w: en- * * tle dor;|Oh! could tongues|* by an- gels|taught Speak our|e- x- ulta- tion|
w: sp * * our sure;|Wel- come, though|* an age like|this Puts Thy|name on tri- al,|
w: ld * * Thee er;|Faith- ful lips|* shall an- swer|thus To all|faith- less scorn- ing,|
w: day * * morn greet|With our best|* de- v- o-|tion, Bathe us,|O most true~and sweet!|
w: life * * un- ing;|Thou whose love|* be- stows a|worth On each|poor en- dea- vor,|
 A3 G3 | G2 G c2 [Cc] | ([Dd][Cc])[Dd] [_E_e]3 | [_E_e]2 [Ec] ([Ee][Fd])[^Fc] | c3 B3 | %18
w: Many a|joy shall pass a-|way, * But the|“Great Joy” ne- * ver.|But the|
w: In the|vir- gin’s child that|brought * All man-|kind sal- va- * tion?|In the|
w: And the|truth that makes our|bliss * Pleads a-|gainst de- ni- * al,|Pleads a-|
w: “Je- sus|Christ is God with|us, * Born on|Christ- mas morn- * ing.”|Born on|
w: In Thy|m- er- cy’s o-|cean. * Bathe us,|O~most true and * sweet!|In Thy|
w: Have Thou|joy of this Thy|birth * In our|praise for- ev- * er.|In our|
 c2 [Ec] ([Ff][Ge])[Ad] | c3 (e2 d) | c6 | G6 | G6 | G6 | G3 [CG]3 |] %25
w: “Great Joy” ne- * ver.|But the *|“Great|Joy”|ne-|ver!||
w: virgin’s child that * brought|All man- *|kind|sal-|va-|tion?|* All|
w: gainst de- ni- * al,|Pleads a- *|gainst|de-|ni-|al!||
w: Christ- mas morn- * ing.”|Born on *|Christ-|mas|morn-|ing.”||
w: mer- cy’s o- * cean.|In Thy *|mer-|cy’s|o-|cean.||
w: praise for- ev- * er.|In our *|praise|for-|ev-|er.||
V:2
 x6 | (FG) E2 x2 | E2 (E _E) x2 | (CDB,FD) x | x6 | (FG) x4 | D2 D3 x | D2 x2 (C/E/) x | D3 C2 x | %9
 x3 B, C x | x6 | (!>!CD) (F2 C) x | x6 | (DE^F) G3 | G2 G c2 x | x6 | x6 | (G2 A) (G2 F) | %18
 (ED) x4 | (G2 E F3) | (E2 F E2 F) | (E2 F) (ECD) | E3 (CDE) | E3 E2 D | (C2 D) x3 |] %25
V:3
 (CG,)[C,A,] (G,C)[C,G,] | [G,,A,]2 [G,,B,] (CG,^F,) | [C,G,]2 [B,,G,] [A,,G,]2 G, | %3
 G, ^F,2 (G,A,B,) | (CG,)[C,A,] (G,C)[C,G,] | [G,,G,]2 [G,,B,] [C,C][C,D][C,C] | %6
 B,G,[D,A,] [D,B,]3- | (B,2 A,) [E,G,][C,^G,][C,A,] | [D,-B,]3 [D,A,]2 [D,A,] | (^F,E,D,) G,3 | %10
 [C,G,]2 [C,F,] [C,G,]2 [C,A,] | _B,2 [C,B,] A,3 | [D,A,]2 [D,G,] [D,A,]2 [D,B,] | C3 [G,B,]3 | %14
 G,2 G, C2 C | DCD _E3 | [_A,C]2 [A,C] (CD)[A,_E] | (_E2 E) [G,D]3 | %18
 [A,C]2 [A,C] ([D,A,][E,G,])[F,F] | (EDC B,A,B,) | (C2 A, G,2 A,) | (G,2 A,) G,3 | (G,CD) (EDC) | %23
 B,2 A, G,2 F, | (E,2 F,) [C,E,]3 |] %25
V:4
 C,2 C,2 x2 | x3 C,3 | x5 (B,,/C,/) | D,2 G,3 x | C,2 C,2 x2 | x6 | D,2 x4 | D,3 x3 | x6 | %9
 G,,3 (G,,A,,B,,) | x6 | E,D, (F,2 _E,) x | x6 | (^F,E,D,) x3 | G,2 G, C2 C | (DC)D _E3 | %16
 x3 _A,2 x | G,3 x3 | x6 | E,3 G,,3 | C,6 | C,3 (C,E,F,) | G,3 G,3 | G,,6 | C,3 x3 |] %25

